X:401
T:Border Waltz II
R:Waltz
M:3/4
L:1/8
K:D
d3 c  d2 | A4    F2 | A3 B A2 | G4    E2 | D2  E2 D2 | F2 A2 d2 | c3 B c2 | A4 c2  |
d3 c  d2 | A4    F2 | G4 A2   | B2 A2 G2 | F3  G  A2 | Bc d2 B2 | A3 B c2 | d6    :|
A2 F2 F2 | G2 E2 C2 | D4   DE | F4    A2 | B2  d2 d2 | A2 d2 d2 | c3 B c2 | A4 AB  |
A2 F2 F2 | G2 E2 F2 | G3 A G2 | F4    D2 | B,2 D2 B2 | A2 F2 D2 | E3 D C2 | D6    :|
